symbols/web/ice_skating/materialsymbolsrounded/ice_skating_wght700fill1_24px.svg

<svg xmlns="http://www.w3.org/2000/svg" height="24" width="24"><path d="M5.425 19.8v-1.6H5.3q-1.25 0-2.063-.938-.812-.937-.812-2.212V5.575q0-1.325.913-2.238.912-.912 2.237-.912H8.3q1.325 0 2.238.912.912.913.912 2.238v.85H8.125q-.2 0-.35.15-.15.15-.15.35 0 .2.15.35.15.15.35.15h3.325V7.5q0 .1.15.725H8.125q-.2 0-.35.15-.15.15-.15.35 0 .2.15.35.15.15.35.15h4.3q.525.375 1.113.612.587.238 1.212.438l1.3.4q1.475.45 2.4 1.65.925 1.2.925 2.725 0 1.25-.737 2.2-.738.95-1.938.95h-.125v1.6H18q.65 0 1.25-.287.6-.288.875-.863.275-.5.675-.888.4-.387.975-.387.8 0 1.263.613.462.612.262 1.362-.5 1.7-2 2.65t-3.3.95H3q-.65 0-1.112-.463-.463-.462-.463-1.112 0-.65.463-1.112Q2.35 19.8 3 19.8Zm3.15 0h4.85v-1.6h-4.85Z"/></svg>

<svg xmlns="http://www.w3.org/2000/svg" height="24" width="24"><path d="M5.425 19.8V18.2H5.3Q4.05 18.2 3.237 17.262Q2.425 16.325 2.425 15.05V5.575Q2.425 4.25 3.338 3.337Q4.25 2.425 5.575 2.425H8.3Q9.625 2.425 10.538 3.337Q11.45 4.25 11.45 5.575V6.425H8.125Q7.925 6.425 7.775 6.575Q7.625 6.725 7.625 6.925Q7.625 7.125 7.775 7.275Q7.925 7.425 8.125 7.425H11.45V7.5Q11.45 7.6 11.6 8.225H8.125Q7.925 8.225 7.775 8.375Q7.625 8.525 7.625 8.725Q7.625 8.925 7.775 9.075Q7.925 9.225 8.125 9.225H12.425Q12.95 9.6 13.538 9.837Q14.125 10.075 14.75 10.275L16.05 10.675Q17.525 11.125 18.45 12.325Q19.375 13.525 19.375 15.05Q19.375 16.3 18.638 17.25Q17.9 18.2 16.7 18.2H16.575V19.8H18Q18.65 19.8 19.25 19.513Q19.85 19.225 20.125 18.65Q20.4 18.15 20.8 17.762Q21.2 17.375 21.775 17.375Q22.575 17.375 23.038 17.988Q23.5 18.6 23.3 19.35Q22.8 21.05 21.3 22Q19.8 22.95 18 22.95H3Q2.35 22.95 1.888 22.487Q1.425 22.025 1.425 21.375Q1.425 20.725 1.888 20.263Q2.35 19.8 3 19.8ZM8.575 19.8H13.425V18.2H8.575Z"/></svg>
